src/images/v2/close_mobile.svg

<svg fill="none" height="27" viewBox="0 0 27 27" width="27" xmlns="http://www.w3.org/2000/svg"><g clip-rule="evenodd" fill="#06aff2" fill-rule="evenodd"><path d="m20.7858 5.8811c.4339.43392.4339 1.13743 0 1.57135l-13.33335 13.33335c-.43392.4339-1.13743.4339-1.57135 0-.43391-.4339-.43391-1.1375 0-1.5714l13.3333-13.3333c.4339-.43391 1.1375-.43391 1.5714 0z"/><path d="m5.8811 5.8811c.43392-.43391 1.13743-.43391 1.57135 0l13.33335 13.3333c.4339.4339.4339 1.1375 0 1.5714s-1.1375.4339-1.5714 0l-13.3333-13.33335c-.43391-.43392-.43391-1.13743 0-1.57135z"/></g></svg>

<svg width="27" height="27" viewBox="0 0 27 27" fill="none" xmlns="http://www.w3.org/2000/svg">
<path fill-rule="evenodd" clip-rule="evenodd" d="M20.7858 5.8811C21.2197 6.31502 21.2197 7.01853 20.7858 7.45245L7.45245 20.7858C7.01853 21.2197 6.31502 21.2197 5.8811 20.7858C5.44719 20.3519 5.44719 19.6483 5.8811 19.2144L19.2144 5.8811C19.6483 5.44719 20.3519 5.44719 20.7858 5.8811Z" fill="#06AFF2"/>
<path fill-rule="evenodd" clip-rule="evenodd" d="M5.8811 5.8811C6.31502 5.44719 7.01853 5.44719 7.45245 5.8811L20.7858 19.2144C21.2197 19.6483 21.2197 20.3519 20.7858 20.7858C20.3519 21.2197 19.6483 21.2197 19.2144 20.7858L5.8811 7.45245C5.44719 7.01853 5.44719 6.31502 5.8811 5.8811Z" fill="#06AFF2"/>
</svg>
